!!!ONB: MCCC : ILB0188_02 : Extracted Monophonic Melody
!!!COM: Beethoven, Ludwig van
!!!OPR: Piano Sonata No.27
!!!OMV: 2
!!!SCT: Op.90
!!!ODT: 1814///
**kern
*thru
*staff1
*clefG2
*k[f#c#g#d#]
*E:
*M2/4
*MM110
16e
16f#
=1
4g#
8b
8a
=2
8g#
8f#
8f#
8g#
=3
8a
8cc#
8b
8f#
=4
4g#
8r
16ee
16ff#
=5
4gg#
8bb
8aa
=6
8gg#
8ff#
8ff#
8gg#
=7
8aa
8ccc#
8bb
8ddd#
=8
4eee
8r
8b
=9
4a#
4ee
=10
4.dd#
8a
=11
4g#
4dd
=12
4.cc#
8cc#
=13
8b#
8cc#
8a
8g#
=14
8g#
4f#
8f#
=15
8f#
8b
8a#
8b
=16
4e
8r
8bb
=17
4aa#
4eee
=18
4.ddd#
8aa
=19
4gg#
4ddd
=20
4.ccc#
8ccc#
=21
8bb#
8ccc#
8aa
8gg#
=22
8gg#
4ff#
8ff#
=23
8ff#
8bb
8aa#
8bb
=24
4ee
8r
16e
16f#
=25
4g#
8b
8a
=26
8g#
8f#
8f#
8g#
=27
8a
8cc#
8b
8f#
=28
8g#
8r
16ee
16dd#
16ee
16ff#
=29
16gg#
16ff#
16gg#
16aa
8bb
8aa
=30
8gg#
8ff#
8ff#
8gg#
=31
8aa
8ccc#
8bb
8ddd#
=32
4eee
8r
8g#
=33
4.g#
8ee
=34
4.dd#
8g#
=35
4.g#
8dd#
=36
4.ee
8g#
=37
4.g#
8ee
=38
4.ee
8e
=39
4.e
8ee
=40
8ee
8r
4r
=41
4.ccc#
8bb
=42
8bb
8aa#
8aa#
8bb
=43
4.ccc#
8bb
=44
8aa#
8ccc#
8bb
8aa#
=45
8bb
8aa#
8gg#
8ff#
=46
8gg#
8ff#
8ee
8dd#
=47
4.dd#
16ee
16ff#
=48
8cc#
16ff#
16gg#
16ff#
16gg#
16ff#
16gg#
=49
*8va
4.eee
8ddd#
=50
8ddd#
8ccc#
8ccc#
8ddd#
=51
4.eee
8ddd#
=52
8ccc#
8ggg#
8fff#
8eee
=53
8ddd#
8fff#
8eee
8ddd#
=54
8ccc#
8eee
8ddd#
8ccc#
=55
*X8va	*X8va
16bb
16ff#
16aa
16b#
16gg#
16b#
16gg#
16b#
=56
16gg#
16g#
16a#
16b#
16cc#
16b#
16cc#
16dd#
=57
16ee
16b#
16cc#
16dd#
16ee
16dd#
16ee
16ff#
=58
16gg#
16ff#
16ee
16dd#
16ee
16dd#
16cc#
16gg#
=59
16dd#
16cc#
16b
16ff#
16cc#
16b
16a#
16ff#
=60
2ff#
=61
4ee
4dd#
=62
4cc#
[4b
=63
4b]
8a#
8ff#
=64
2ff#
=65
4ee
4dd#
=66
4cc#
[4b
=67
4b]
4a
=68
16a
16dd#
16ff#
16dd#
16aa
16ddd#
16fff#
16ddd#
=69
4aaa
16r
16d#
16e
16f#
=70
4g#
8b
8a
=71
8g#
8f#
8f#
8g#
=72
8a
8cc#
8b
8f#
=73
4g#
8r
16ee
16ff#
=74
4gg#
8bb
8aa
=75
8gg#
8ff#
8ff#
8gg#
=76
8aa
8ccc#
8bb
8ddd#
=77
4eee
8r
8b
=78
4a#
4ee
=79
4.dd#
8a
=80
4g#
4dd
=81
4.cc#
8cc#
=82
8b#
8cc#
8a
8g#
=83
8g#
4f#
8f#
=84
8f#
8b
8a#
8b
=85
4e
8r
8bb
=86
4aa#
4eee
=87
4.ddd#
8aa
=88
4gg#
4ddd
=89
4.ccc#
8ccc#
=90
8bb#
8ccc#
8aa
8gg#
=91
8gg#
4ff#
8ff#
=92
8ff#
8bb
8aa#
8bb
=93
4ee
8r
16e
16f#
=94
4g#
8b
8a
=95
8g#
8f#
8f#
8g#
=96
8a
8cc#
8b
8f#
=97
8g#
8r
16ee
16dd#
16ee
16ff#
=98
16gg#
16ff#
16gg#
16aa
8bb
8aa
=99
8gg#
8ff#
8ff#
8gg#
=100
8aa
8ccc#
8bb
8ddd#
=101
4eee
8r
8g#
=102
8a
8cc#
8b
8dd#
=103
4.ee
8gg
=104
8aa
8ccc
8bb
8ddd#
=105
*k[f#]
4eee
8r
8g
=106
8a
8cc
8b
8dd#
=107
8ee
8gg
8ccc
8ccc
=108
8ccc
8ccc
8fff
8fff
=109
*k[]
8fff
8fff
8fff
8fff
=110
[2fff
=111
2fff_
=112
8fff]
4fff
8eee
=113
8ddd
8aa
8gg
16gg
16g
=114
2gg
=115
4ff
4ee
=116
4dd
[4cc
=117
4cc]
8b
8gg
=118
2gg
=119
4ff
4ee-
=120
4dd
[4cc
=121
4cc]
8b#
8gg#
=122
2gg#
=123
4ff#
4ee
=124
*k[f#c#g#d#]
4dd#
[4cc#
=125
4cc#]
8b#
8gg#
=126
2gg#
=127
4ff#
4ee#
=128
4dd#
[4cc#
=129
4cc#]
8cc#
8aa
=130
[2aa
=131
2aa]
=132
[2ddd#
=133
2ddd#]
=134
[2fff#
=135
2fff#]
=136
8ff#
16a
16cc
16b
16a#
16b
16f#
=137
8ff#
16a
16cc
16b
16a#
16b
16f#
=138
8ff#
16a
16cc
16b
16a#
16b
16a
=139
16g#
16f#
16g#
16f#
16e
16d#
16e
16f#
=140
4g#
8b
8a
=141
8g#
8f#
8f#
8g#
=142
8a
8cc#
8b
8f#
=143
4g#
8r
16ee
16ff#
=144
4gg#
8bb
8aa
=145
8gg#
8ff#
8ff#
8gg#
=146
8aa
8ccc#
8bb
8ddd#
=147
4eee
8r
8b
=148
4a#
4ee
=149
4.dd#
8a
=150
4g#
4dd
=151
4.cc#
8cc#
=152
8b#
8cc#
8a
8g#
=153
8g#
4f#
8f#
=154
8f#
8b
8a#
8b
=155
4e
8r
8bb
=156
4aa#
4eee
=157
4.ddd#
8aa
=158
4gg#
4ddd
=159
4.ccc#
8ccc#
=160
8bb#
8ccc#
8aa
8gg#
=161
8gg#
4ff#
8ff#
=162
8ff#
8bb
8aa#
8bb
=163
4ee
8r
16e
16f#
=164
4g#
8b
8a
=165
8g#
8f#
8f#
8g#
=166
8a
8cc#
8b
8f#
=167
8g#
8r
16ee
16dd#
16ee
16ff#
=168
16gg#
16ff#
16gg#
16aa
8bb
8aa
=169
8gg#
8ff#
8ff#
8gg#
=170
8aa
8ccc#
8bb
8ddd#
=171
4eee
8r
8g#
=172
4.g#
8ee
=173
4.dd#
8g#
=174
4.g#
8dd
=175
4.cc#
8c#
=176
4.c#
8b
=177
4.a
8aa
=178
4.aa
8a
=179
4.a
8aa
=180
8aa
8r
4r
=181
4.fff#
8eee
=182
8eee
8ddd#
8ddd#
8eee
=183
4.fff#
8eee
=184
8ddd#
8fff#
8eee
8ddd#
=185
8eee
8ddd#
8ccc#
8bb
=186
8ccc#
8bb
8aa
8gg#
=187
4.gg#
16aa
16bb
=188
8ff#
16b
16cc#
16b
16cc#
16b
16cc#
=189
4.aa
8gg#
=190
8gg#
8ff#
8ff#
8gg#
=191
4.aa
8gg#
=192
8ff#
8ccc#
8bb
8aa
=193
8gg#
8bb
8aa
8gg#
=194
8ff#
8aa
8gg#
8ff#
=195
8ee
8dd
8cc#
8cc#
=196
16cc#
16cc#
16dd#
16ee#
16ff#
16ee#
16ff#
16gg#
=197
16aa
16ee#
16ff#
16gg#
16aa
16gg#
16aa
16bb
=198
16ccc#
16bb
16aa
16gg#
16aa
16gg#
16ff#
16ccc#
=199
16gg#
16ff#
16ee
16bb
16ff#
16ee
16dd#
16bb
=200
2bb
=201
4aa
4gg#
=202
4ff#
[4ee
=203
4ee]
8dd#
8bb
=204
2bb
=205
4aa
4gg#
=206
4ff#
4ee
=207
4ee
4ddd
=208
2ddd
=209
*k[]
2fff
=210
16fff
16f
16b
16dd
16ff
16bb
16ddd
16bb
=211
4fff
8r
8ee
=212
8ff
8aa-
8gg
8dd
=213
8ee
8ff
8ee
8b
=214
4cc
4cc#
=215
4dd
[4aa
=216
8aa]
8bb-
8aa
8ff
=217
8bb-
8ff
8ee#
8cc#
=218
*k[f#c#g#d#]
8ff#
8cc#
8cc#
8a#
=219
8aa#
8ff#
8ff#
8cc#
=220
8ccc#
8aa
8aa
8ff#
=221
8ccc
8ff#
8bb
16ff#
16r
=222
4r
16dd#
16bb
16dd#
16ee
=223
16ff#
16bb
16ff#
16gg#
16aa
16bb
16aa
16gg#
=224
16ff#
16bb
16ff#
16ee
16dd#
16bb
16dd#
16ee
=225
16ff#
16bb
16ff#
16gg#
16aa
16bb
16aa
16gg#
=226
16ff#
16bb
16ff#
16ee
16dd#
16bb
16dd#
16ee
=227
16ff#
16bb
16ff#
16gg#
16aa
16bb
16aa
16gg#
=228
16ff#
16bb
16ff#
16ee
16dd#
16ee
16dd#
16cc#
=229
16b
16cc#
16d#
16e
16f#
16a
16g#
16f#
=230
16g#
16b
16B
16b
16g#
16b
16f#
16b
=231
16e
16b
16d#
16b
16d#
16b
16e#
16b
=232
16f#
16b
16a
16b
16g#
16b
16b
16dd#
=233
16b
16ee
16b
16ff#
16b
16ff##
16b
16gg#
=234
4gg#
8bb
8aa
=235
8gg#
8ff#
8ff#
8gg#
=236
8aa
8ccc#
8bb
8ddd#
=237
16eee
16ee
16b
16g#
16b
16g#
16f#
16dd#
=238
16f#
16ee
16cc#
16f#
16f#
16ff#
16cc#
16f#
=239
16f#
16dd#
16b
16f#
16d#
16b
16e
16a
=240
16e
16b
16g#
16e
16e
16ee
16b
16e
=241
16e
16ee
16cc#
16a
16e
16ee
16e
16ee
=242
16e
16ee
16e
16ee
16e
16ee
16e
16ee
=243
16e
16ee
16e
16ee
16e
16ee
16e
16ee
=244
16d#
16dd#
16b
16f#
16f#
16ff#
16dd#
16a
=245
4g#
8r
8bb
=246
4aa#
4eee
=247
4.ddd#
8aa
=248
4gg#
4ddd
=249
4.ccc#
8ccc#
=250
8bb#
8ccc#
8aa
8gg#
=251
8gg#
4ff#
8ff#
=252
8ff#
8bb
8aa#
8bb
=253
8ee
8bb
8aa#
8bb
=254
16r
16dd#
16bb
16aa
16ff#
16dd#
16b
16a
=255
16r
16g#
16bb
16gg#
16ee
16b
16a
16g#
=256
8ff#
8bb
8aa#
8bb
=257
8ee#
8ddd
8ccc#
8ddd
=258
8ccc#
8ff#
8aa
8cc#
=259
8ff#
8cc#
8ee
8f#
=260
8b
8g#
8b
8e
=261
8d#
8b
8f#
8b
=262
16r
16d
16g#
16e#
16r
16c#
16a
16f#
=263
16r
16b
16bb
16gg#
16r
16cc#
16ccc#
16aa
=264
16r
16dd
16ddd
16bb
16r
16cc#
16ccc#
16bb
=265
4r
8r
16c#
16d#
=266
8e
8g
8f#
8c#
=267
8ff#
8ccc#
8bb
8ff#
=268
2aa
=269
8aa
8aa
8gg#
8ee
=270
2gg#[
=271
8gg#]
8gg#
8ff#
8dd#
=272
8ff#
8ff#
8ee
8cc#
=273
8ee
8ee
8dd#
8b
=274
8dd
8dd
8cc#
8cc
=275
8b
8b
16a
16f#
16e
16f#
=276
4g#
8b
8a
=277
8g#
8f#
8f#
8g#
=278
8a
8cc#
8b
8f#
=279
4g#
16e
16B
8g#
=280
8a
8cc#
8b
8f#
=281
4.g#
8gg#
=282
8aa
8ccc#
8bb
8ddd#
=283
4eee
4r
=284
8r
8A
8G#
8g#
=285
8f#
8ff#
8ee
8ccc#
=286
16ccc#
16bb
16gg#
16ee
16dd#
16cc#
16b
16a
=287
16g#
16f#
16e
16ee
16dd#
16cc#
16ccc#
16bb
=288
16bb
16aa
16aaa
16ggg#
16ggg#
16fff#
16aaa
16fff#
=289
16eee
16ddd#
16fff#
16aa
16aa
16gg#
16eee
16gg#
=290
16ff#
16ccc#
16bb
16dd#
8ee
8r
==
*-
